X: 1179
T: İçime Hep Hüzün Doluyor
C: Yıldırım Gürses
O: Turkey
F: http://compmusic.upf.edu/node/140
N: rast--sarki--curcuna--icime_hep--yildirim_gurses
N: makam= rast
N: form= sarki
N: usul= curcuna = 10/8
M: 10/8
L: 1/16
K: C _1/4B ^f  
Q: 1/4=162
%%MIDI tuningsystem comma53
z4 G2A2 B2c2 B2B4AG  | {A}G8-G2D2 EFG4z2  | \
w:  İ çi *  me   |  *  hep  SAZ  | 
z4 c2c2 B2B2 A2c4BA  | 
w:  hü zün  *  do *  lu  | 
{B}A16-A4  | z4 d2d2 e2=f2 e2d2 c2B2  | \
w:  *  yor    |  hü zün  *  do *  lu  | 
d8 ABc2 BAG6  | z4 G2A2 B2c2 B2B4AG  | 
w:  yor   SAZ  |  İ çi *  me   | 
{A}G8-G2D2 EFG4z2  | z4 c2c2 B2B2 A2c4BA  | \
w:  *  hep  SAZ  |  hü zün  *  do *  lu  | 
{B}A16-A4  | z4 d2d2 e2=f2 e2d2 c2B2  | 
w:  *  yor    |  hü zün  *  do *  lu  | 
d8-d2GA Bcd6  | z4 d2g4g2 ^1/4f2=f2 e2d2  | \
w:  yor   SAZ  |  Yi ne  sen   | 
=f18e2  | z4 e2e2 d2d2 c2c4B2  | 
w:  siz   |  yi ne  *  sen   | 
d8-d2G3/2A/ Bcd6  | z4 d2d2 ^c2c2 _7/8B2B4AG  | \
w:  siz  SAZ  |  sa bah  *  o *  lu  | 
{A}G8-G2c2 {d}cBc4B2  | 
w:  *  yor   ah   | 
z4 B2B2 A2A2 G2F3ED2  | G16-G4  | z4 d2d2 e2=f2 e2d2 c2B2  | \
w:  sa bah  *  o *  lu  |  yor    |  SAZ  | 
d8-d2GA Bcd6  | 
w:   | 
z4 d2g4g2 ^1/4f2=f2 e2d2  | =f18e2  | \
w:  Yi ne  sen   |  siz   | 
z4 e2e2 d2d2 c2c4B2  | d8-d2G3/2A/ Bcd6  | 
w:  yi ne  *  sen   |  siz  SAZ  | 
z4 d2d2 ^c2c2 _7/8B2B4AG  | {A}G8-G2c2 {d}cBc4B2  | \
w:  sa bah  *  o *  lu  |  *  yor   ah   | 
z4 B2B2 A2A2 G2F3ED2  | 
w:  sa bah  *  o *  lu  | 
G16-G4  | z4 d2e2 ^9/8f2g4=b2 a2g2  | \
w:  yor    |   | 
g8-g2d2 e^9/8fg6  | z4 g2g4g2 ^9/8f2e4f2  | 
w:   |  Ge çi yor  *  gün   | 
g8-g2=fe dcB3/2A/ G2z2  | z4 a2a2 g2^9/8f2 efg2 e2d2  | d16-d4  | 
w:  ler  SAZ  |  ö mür  *  do *  *  lu  |  yor    | 
z4 a2a2 c'2=b2 a2g^9/8f e2f2  | g16-g4  | \
w:  ö mür  *  do *  lu  |  yor    | 
z4 d2e2 ^9/8f2g4=b2 a2g2  | g8-g2d2 e^9/8fg6  | 
w:  SAZ  |   | 
z4 g2g4g2 ^9/8f2e4f2  | g6g4=fe dcB3/2A/ G2z2  | \
w:  Ge çi yor  *  gün  |  ler  SAZ  | 
z4 a2a2 g2f2 efg2 e2d2  | 
w:  ö mür  *  do *  *  lu  | 
d16-d4  | z4 =f2e2 d2d2 c2B2 A2G2  | d16-d4  | \
w:  yor    |  ö mür  *  do *  lu  |  yor    | 
z4 d2d2 e2=f2 e2d2 c2B2  | 
w:  SAZ  | 
d8-d2GA Bcd6  | z4 d2g4g2 ^1/4f2=f2 e2d2  | \
w:   |  Yi ne  sen   | 
=f18e2  | z4 e2e2 d2d2 c2c4B2  | 
w:  siz   |  yi ne  *  sen   | 
d8-d2G3/2A/ Bcd6  | z4 d2d2 ^c2c2 _7/8B2B4AG  | \
w:  siz  SAZ  |  sa bah  *  o *  lu  | 
{A}G8-G2c2 {d}cBc4B2  | 
w:  *  yor   ah   | 
z4 B2B2 A2A2 G2F3ED2  | G16-G4  | |


